X:1
T:Berserker Mazurka
C:Liz McDowell
R:mazurka
M:3/4
L:1/8
K:G
A,A [Bc]A [Bc]A | EG AB AG | A2B2c2 | A,A [Bc]A [Bc]A |
EG AB AG | (3cBA (3cBA (3cBA |1 A2C2D2 :|2 A4B2 |:
cB AB cA | B2 [df]B [df]B | (3cBA (3ABc (3efg | f6 |
cB AB cA | B2 [df]B [df]B | (3cde (3efg (3fga |1 b3af2 :|2 b3 afd |]
